X: 25
T:The Minstrel Boy
R:march
Z: John Chambers <jc@eddie.mit.edu> http://eddie.mit.edu/~jc/music/
M:2/4
L:1/8
K:D
|: D3 E | GF ED | F2 A2 | d2 cd | B2 A2 | F>G AF | E4 |  D4:|
d2 c2 | B2 cd | c3 B | A3 A | B3 F | F3 F | B2 c2 | d2  FE ||
